material-icons/material-design-light/scalable/applications/basecamp.svg

﻿<?xml version="1.0" encoding="utf-8"?>
<!DOCTYPE svg PUBLIC "-//W3C//DTD SVG 1.1//EN" "http://www.w3.org/Graphics/SVG/1.1/DTD/svg11.dtd">
<svg xmlns="http://www.w3.org/2000/svg" xmlns:xlink="http://www.w3.org/1999/xlink" version="1.1" baseProfile="full" width="24" height="24" viewBox="0 0 24.00 24.00" enable-background="new 0 0 24.00 24.00" xml:space="preserve">
	<path fill="#000000" fill-opacity="1" stroke-width="0.2" stroke-linejoin="round" d="M 3.38781,15.6398C 3.4047,15.5456 3.4245,15.452 3.44627,15.3589C 3.48763,15.1841 3.53787,15.0113 3.59634,14.8409C 3.82018,14.1857 4.15896,13.5781 4.52219,12.9913C 4.7027,12.7004 4.88743,12.4121 5.07126,12.1234C 5.25888,11.8284 5.45028,11.5352 5.66568,11.2597C 6.01536,10.8125 6.44505,10.3304 7.00235,10.1503C 7.78551,9.89751 8.37126,10.7127 8.82429,11.216C 9.08216,11.5016 9.3598,11.8023 9.71482,11.9654C 9.87842,12.0405 10.0567,12.0792 10.2368,12.068C 10.4991,12.0513 10.7318,11.871 10.9274,11.7091C 11.4632,11.2655 11.8989,10.7047 12.3146,10.1523C 12.7703,9.54768 13.2104,8.93039 13.7328,8.37943C 13.9462,8.15376 14.1752,7.8544 14.482,7.75454C 14.6198,7.70906 14.7732,7.72306 14.9065,7.78439C 14.9799,7.81804 15.0466,7.86526 15.1044,7.92137C 15.1689,7.98487 15.2467,8.03502 15.32,8.09005C 15.8802,8.51358 16.3982,8.99193 16.8872,9.49492C 17.3118,9.93246 17.7164,10.3903 18.1032,10.8629C 18.4789,11.3245 18.8412,11.7947 19.1546,12.3045C 19.5325,12.9253 19.8527,13.5783 20.2061,14.2137C 20.5284,14.7936 20.8552,15.4639 20.5329,16.1178C 20.5151,16.1523 20.4973,16.1868 20.4773,16.2198C 19.906,17.1856 18.8768,17.7872 17.8586,18.181C 16.6338,18.6547 15.3156,18.8804 14.0107,18.9716C 12.6614,19.0663 11.2965,19.0619 9.94889,18.9356C 8.7316,18.8214 7.50586,18.6045 6.36059,18.1623C 5.40359,17.7926 4.48062,17.2462 3.84041,16.4261C 3.69103,16.2346 3.55877,16.0301 3.44584,15.8147C 3.43249,15.7891 3.41915,15.7629 3.40581,15.7366C 3.38738,15.6984 3.38025,15.6828 3.38781,15.6398 Z M 2.08404,16.5233C 2.22476,16.7308 2.37681,16.9306 2.53887,17.122C 2.86275,17.5037 3.22753,17.8497 3.62256,18.1567C 4.46284,18.809 5.43183,19.2773 6.43905,19.6068C 7.60389,19.9887 8.82208,20.1923 10.0409,20.2937C 11.4543,20.4113 12.8881,20.4098 14.2975,20.2615C 15.6046,20.1241 16.9072,19.8525 18.1299,19.3661C 19.2146,18.9354 20.2106,18.3201 21.0819,17.5423C 21.3065,17.3404 21.5265,17.1251 21.7044,16.88C 21.8577,16.6731 21.9778,16.4443 22,16.1847C 22.0245,15.8803 21.9756,15.5707 21.9155,15.2738C 21.8489,14.9444 21.76,14.6203 21.6777,14.2951C 21.6466,14.1766 21.6177,14.0581 21.591,13.9391C 21.2709,12.53 20.7841,11.1577 20.1194,9.87417C 19.5592,8.78668 18.8656,7.75997 18.0609,6.83833C 17.3096,5.97747 16.4337,5.2244 15.4312,4.67593C 14.8977,4.38482 14.333,4.15243 13.7528,3.97811C 13.4394,3.88367 13.1193,3.80607 12.797,3.74333C 12.7147,3.72716 12.6325,3.70632 12.548,3.70632C 12.4413,3.70632 12.3346,3.70632 12.2279,3.70632C 12.0234,3.70632 11.8188,3.70632 11.6143,3.70632C 11.521,3.70632 11.4276,3.70197 11.3342,3.71326C 11.2498,3.72357 11.1631,3.73562 11.0786,3.74962C 10.9141,3.77622 10.7532,3.80878 10.5922,3.84731C 10.2734,3.92394 9.95979,4.02413 9.65435,4.14418C 9.0437,4.38428 8.46507,4.70361 7.92511,5.07602C 6.87031,5.80337 5.95423,6.72913 5.18307,7.75096C 4.3657,8.83465 3.71237,10.0393 3.20798,11.2988C 2.67157,12.6383 2.30101,14.042 2.07204,15.4665C 2.04247,15.6493 2.00002,15.8391 2.00002,16.0242C 2.00002,16.1239 2.00002,16.2233 2.00002,16.3223C 2.00002,16.37 1.99891,16.3957 2.02513,16.4352C 2.0447,16.4647 2.06381,16.4938 2.08404,16.5233 Z "/>
</svg>

<?xml version="1.0" encoding="UTF-8" standalone="no"?>
<svg xmlns:rdf="http://www.w3.org/1999/02/22-rdf-syntax-ns#" xmlns="http://www.w3.org/2000/svg" xml:space="preserve" height="24" width="24" version="1.1" enable-background="new 0 0 24.00 24.00" xmlns:cc="http://creativecommons.org/ns#" xmlns:dc="http://purl.org/dc/elements/1.1/" viewBox="0 0 24.00 24.00"><path stroke-linejoin="round" d="m3.3878 15.64c0.0169-0.094 0.0367-0.188 0.0585-0.281 0.0413-0.175 0.0916-0.348 0.15-0.518 0.2239-0.655 0.5627-1.263 0.9259-1.85 0.1805-0.291 0.3652-0.579 0.5491-0.868 0.1876-0.295 0.379-0.588 0.5944-0.863 0.3497-0.448 0.7793-0.93 1.3367-1.11 0.7831-0.2525 1.3689 0.563 1.8219 1.066 0.2579 0.286 0.5355 0.586 0.8905 0.749 0.1636 0.075 0.3422 0.114 0.5222 0.103 0.262-0.017 0.495-0.197 0.69-0.359 0.536-0.443 0.972-1.004 1.388-1.557 0.455-0.6043 0.895-1.2216 1.418-1.7726 0.213-0.2256 0.442-0.525 0.749-0.6249 0.138-0.0454 0.291-0.0314 0.424 0.0299 0.074 0.0336 0.141 0.0809 0.198 0.137 0.065 0.0635 0.143 0.1136 0.216 0.1686 0.56 0.4236 1.078 0.9019 1.567 1.4049 0.425 0.4376 0.829 0.8951 1.216 1.3681 0.376 0.461 0.738 0.932 1.052 1.441 0.377 0.621 0.698 1.274 1.051 1.91 0.322 0.58 0.649 1.25 0.327 1.904-0.018 0.034-0.036 0.069-0.056 0.102-0.571 0.966-1.6 1.567-2.618 1.961-1.225 0.474-2.543 0.699-3.848 0.791-1.35 0.094-2.715 0.09-4.0621-0.036-1.2173-0.115-2.443-0.332-3.5883-0.774-0.957-0.369-1.88-0.916-2.5202-1.736-0.1494-0.191-0.2816-0.396-0.3946-0.611-0.0133-0.026-0.0266-0.052-0.04-0.078-0.0184-0.039-0.0256-0.054-0.018-0.097zm-1.3038 0.883c0.1408 0.208 0.2928 0.408 0.4549 0.599 0.3239 0.382 0.6886 0.728 1.0837 1.035 0.8402 0.652 1.8092 1.12 2.8164 1.45 1.1649 0.382 2.3831 0.585 3.602 0.687 1.413 0.117 2.847 0.116 4.257-0.032 1.307-0.138 2.609-0.41 3.832-0.896 1.085-0.431 2.081-1.046 2.952-1.824 0.224-0.202 0.444-0.417 0.622-0.662 0.154-0.207 0.274-0.436 0.296-0.695 0.024-0.305-0.024-0.614-0.084-0.911-0.067-0.33-0.156-0.654-0.238-0.979-0.031-0.118-0.06-0.237-0.087-0.356-0.32-1.409-0.807-2.781-1.472-4.0648-0.56-1.0875-1.253-2.1142-2.058-3.0359-0.751-0.8608-1.627-1.6139-2.63-2.1624-0.533-0.2911-1.098-0.5235-1.678-0.6978-0.314-0.0944-0.634-0.172-0.956-0.2348-0.082-0.0161-0.165-0.037-0.249-0.037h-0.32-0.614c-0.093 0-0.186-0.0043-0.28 0.007-0.084 0.0103-0.171 0.0223-0.255 0.0363-0.165 0.0266-0.326 0.0592-0.487 0.0977-0.319 0.0766-0.6322 0.1768-0.9376 0.2969-0.6107 0.2401-1.1893 0.5594-1.7293 0.9318-1.0548 0.7274-1.9709 1.6531-2.742 2.675-0.8174 1.0836-1.4707 2.288-1.9751 3.548-0.5364 1.339-0.907 2.743-1.136 4.167-0.0295 0.183-0.072 0.373-0.072 0.558v0.298c0 0.048-0.0011 0.074 0.0251 0.113 0.0196 0.03 0.0387 0.059 0.0589 0.088z" stroke-width=".2"/></svg>
